X:12860
T:Pastor que tas nel monte
R:Tonada
C:Tradicional
S:Msica Tradicional Asturiana, (C) Tello & Tito. Asturies, 2001.
S:http://pagina.de/MusTradAst <telloytito@asturies.org>
A:Asturies
Z:Les cuarenta principales
M:3/4
L:1/4
Q:3/4=44
K:Cm
G
|c2 =B|ced|cBA|G2 A|B2 =A|Bdc|B>AG-|G2 A|
|B2 =A|BcB|GAG|F2 F|B2 =A|Bdc|=ABG|=A2 ^F|G3-|G2 z|
